icons-rebrand/svg/active-speaker-lock-bold.svg

<svg width="32" height="32" viewBox="0 0 32 32" fill="none" xmlns="http://www.w3.org/2000/svg">
<path d="M10 12.6831V11.6831C10 11.2892 9.9224 10.899 9.77164 10.5351C9.62087 10.1711 9.3999 9.84037 9.12132 9.5618C8.84274 9.28322 8.51203 9.06224 8.14805 8.91148C7.78407 8.76072 7.39397 8.68312 7 8.68312C6.60603 8.68312 6.21593 8.76072 5.85195 8.91148C5.48797 9.06224 5.15726 9.28322 4.87868 9.5618C4.6001 9.84037 4.37913 10.1711 4.22836 10.5351C4.0776 10.899 4 11.2892 4 11.6831V12.6831C3.46981 12.6839 2.96156 12.8949 2.58666 13.2698C2.21176 13.6447 2.00079 14.1529 2 14.6831V18.6831C2.00053 19.2134 2.21141 19.7218 2.58637 20.0967C2.96133 20.4717 3.46973 20.6826 4 20.6831H10C10.5303 20.6826 11.0387 20.4717 11.4136 20.0967C11.7886 19.7218 11.9995 19.2134 12 18.6831V14.6831C11.9992 14.1529 11.7882 13.6447 11.4133 13.2698C11.0384 12.8949 10.5302 12.6839 10 12.6831ZM6 11.6831C6 11.4179 6.10536 11.1635 6.29289 10.976C6.48043 10.7885 6.73478 10.6831 7 10.6831C7.26522 10.6831 7.51957 10.7885 7.70711 10.976C7.89464 11.1635 8 11.4179 8 11.6831V12.6831H6V11.6831ZM4 18.6831V14.6831H10L10.002 18.6831H4ZM19.39 12.8701C19.0017 11.9158 18.4342 11.0448 17.718 10.3041C17.5331 10.1154 17.2811 10.0076 17.017 10.0041C16.7528 10.0006 16.498 10.1018 16.3082 10.2855C16.1184 10.4692 16.0091 10.7206 16.0039 10.9847C15.9988 11.2488 16.0984 11.5042 16.281 11.6951C16.8192 12.2524 17.2459 12.9075 17.538 13.6251C18.1542 15.1485 18.1542 16.8517 17.538 18.3751C17.2461 19.0928 16.8194 19.7479 16.281 20.3051C16.1855 20.3986 16.1098 20.5103 16.0582 20.6335C16.0066 20.7567 15.9803 20.8891 15.9807 21.0227C15.9811 21.1563 16.0083 21.2884 16.0606 21.4113C16.113 21.5343 16.1894 21.6455 16.2854 21.7383C16.3815 21.8312 16.4951 21.9039 16.6197 21.9522C16.7443 22.0004 16.8773 22.0231 17.0108 22.0191C17.1444 22.0151 17.2758 21.9843 17.3972 21.9287C17.5187 21.873 17.6277 21.7936 17.718 21.6951C18.4336 20.955 19.0008 20.0846 19.389 19.1311C20.2028 17.1235 20.2028 14.8778 19.389 12.8701H19.39ZM28.579 9.00312C27.67 6.86608 26.3543 4.92611 24.705 3.29112C24.5159 3.10942 24.263 3.00928 24.0008 3.01227C23.7385 3.01526 23.488 3.12114 23.3031 3.3071C23.1181 3.49306 23.0137 3.74422 23.0122 4.00646C23.0107 4.2687 23.1122 4.52104 23.295 4.70912C24.7609 6.16247 25.9306 7.88673 26.739 9.78612C27.5711 11.7523 27.9999 13.8656 27.9999 16.0006C27.9999 18.1356 27.5711 20.2489 26.739 22.2151C25.9305 24.1144 24.7605 25.8384 23.294 27.2911C23.1542 27.4308 23.0589 27.6087 23.0201 27.8025C22.9813 27.9963 23.0007 28.1972 23.0759 28.3799C23.1511 28.5627 23.2786 28.7191 23.4426 28.8295C23.6065 28.9398 23.7994 28.9992 23.997 29.0001C24.1283 29.0005 24.2585 28.975 24.3799 28.925C24.5014 28.8751 24.6119 28.8017 24.705 28.7091C27.2459 26.1876 28.973 22.9626 29.6636 19.4501C30.3541 15.9376 29.9763 12.2988 28.579 9.00312Z" fill="#0F0F0F"/>
<path d="M25.0001 15.9999C25.0038 14.1776 24.6611 12.3712 23.9901 10.6769C23.5295 9.51511 22.9147 8.42061 22.1621 7.42291C21.8711 7.03691 21.5591 6.66691 21.2281 6.31491C21.1384 6.21804 21.0305 6.13988 20.9105 6.08493C20.7905 6.02998 20.6608 5.99933 20.5289 5.99474C20.3969 5.99016 20.2654 6.01174 20.1419 6.05823C20.0184 6.10472 19.9053 6.1752 19.8091 6.26562C19.713 6.35603 19.6357 6.46459 19.5817 6.58503C19.5277 6.70546 19.498 6.8354 19.4945 6.96734C19.491 7.09928 19.5136 7.23062 19.561 7.35377C19.6085 7.47693 19.6799 7.58947 19.7711 7.68491C20.0521 7.98491 20.3181 8.29891 20.5661 8.62791C21.2107 9.48231 21.7371 10.4198 22.1311 11.4149C23.2888 14.362 23.2888 17.6379 22.1311 20.5849C21.7388 21.5751 21.2158 22.5084 20.5761 23.3599C20.3261 23.6919 20.0581 24.0099 19.7721 24.3129C19.59 24.5059 19.492 24.7632 19.4997 25.0284C19.5074 25.2936 19.6201 25.5448 19.8131 25.7269C20.006 25.909 20.2634 26.007 20.5286 25.9993C20.7937 25.9916 21.045 25.8789 21.2271 25.6859C21.5631 25.3299 21.8791 24.9549 22.1731 24.5629C22.9208 23.5688 23.5322 22.4791 23.9911 21.3229C24.6601 19.6279 25.0041 17.8219 25.0001 15.9999Z" fill="#0F0F0F"/>
</svg>

<svg width="32" height="32" viewBox="0 0 32 32" fill="none" xmlns="http://www.w3.org/2000/svg"><path d="M10 12.683v-1a3 3 0 1 0-6 0v1a2.003 2.003 0 0 0-2 2v4a2.002 2.002 0 0 0 2 2h6a2.002 2.002 0 0 0 2-2v-4a2.003 2.003 0 0 0-2-2zm-4-1a1 1 0 1 1 2 0v1H6v-1zm-2 7v-4h6l.002 4H4zM19.39 12.87a8.063 8.063 0 0 0-1.672-2.566 1 1 0 0 0-1.437 1.391 6.077 6.077 0 0 1 1.257 1.93 6.334 6.334 0 0 1 0 4.75 6.068 6.068 0 0 1-1.257 1.93 1 1 0 1 0 1.437 1.39 8.062 8.062 0 0 0 1.671-2.564 8.333 8.333 0 0 0 0-6.261zM28.579 9.003a17.92 17.92 0 0 0-3.874-5.712 1 1 0 0 0-1.41 1.418 15.939 15.939 0 0 1 3.444 5.077 15.945 15.945 0 0 1 0 12.429 15.923 15.923 0 0 1-3.445 5.076A1.001 1.001 0 0 0 23.997 29a1 1 0 0 0 .708-.291 17.912 17.912 0 0 0 3.874-19.706z" fill="#0F0F0F"/><path d="M25 16a14.375 14.375 0 0 0-1.01-5.323 13.922 13.922 0 0 0-1.828-3.254c-.291-.386-.603-.756-.934-1.108a1 1 0 1 0-1.457 1.37c.281.3.547.614.795.943a11.9 11.9 0 0 1 1.565 2.787 12.54 12.54 0 0 1 0 9.17 11.94 11.94 0 0 1-1.555 2.775c-.25.332-.518.65-.804.953a1 1 0 0 0 1.455 1.373c.336-.356.652-.731.946-1.123a13.956 13.956 0 0 0 1.818-3.24C24.66 19.628 25.004 17.822 25 16z" fill="#0F0F0F"/></svg>
